src/gui/emoticons/good.svg

<svg xmlns="http://www.w3.org/2000/svg" xmlns:xlink="http://www.w3.org/1999/xlink" width="16pt" height="16pt" version="1.1" viewBox="0 0 16 16"><defs><radialGradient id="radial0" cx="51.77" cy="31.401" r="87.039" fx="51.77" fy="31.401" gradientTransform="matrix(-0.000275,0.125,-0.0984125,-0.0002125,9.5755,-2.539375)" gradientUnits="userSpaceOnUse"><stop offset=".6" style="stop-color:#e0bb95;stop-opacity:1"/><stop offset="1" style="stop-color:#cca47a;stop-opacity:1"/></radialGradient><radialGradient id="radial1" cx="1968" cy="-697.5" r="20.331" fx="1968" fy="-697.5" gradientTransform="matrix(-0.173537,0.009925,-0.004675,-0.084925,351.125,-71.43)" gradientUnits="userSpaceOnUse"><stop offset=".5" style="stop-color:#e0bb95;stop-opacity:1"/><stop offset=".995" style="stop-color:#cca47a;stop-opacity:1"/></radialGradient><radialGradient id="radial2" cx="2030.2" cy="-819.12" r="18.753" fx="2030.2" fy="-819.12" gradientTransform="matrix(-0.212088,-0.0002375,0.0003625,-0.08505,444.3125,-59.42375)" gradientUnits="userSpaceOnUse"><stop offset=".5" style="stop-color:#e0bb95;stop-opacity:1"/><stop offset=".703" style="stop-color:#deb892;stop-opacity:1"/><stop offset=".868" style="stop-color:#d6b088;stop-opacity:1"/><stop offset=".995" style="stop-color:#cca47a;stop-opacity:1"/></radialGradient><radialGradient id="radial3" cx="2072.2" cy="-723.45" r="20.446" fx="2072.2" fy="-723.45" gradientTransform="matrix(-0.163362,-0.0007875,0.0005625,-0.08505,351.5875,-45.835)" gradientUnits="userSpaceOnUse"><stop offset=".5" style="stop-color:#e0bb95;stop-opacity:1"/><stop offset=".703" style="stop-color:#deb892;stop-opacity:1"/><stop offset=".868" style="stop-color:#d6b088;stop-opacity:1"/><stop offset=".995" style="stop-color:#cca47a;stop-opacity:1"/></radialGradient><radialGradient id="radial4" cx="2051.2" cy="-807.84" r="18.611" fx="2051.2" fy="-807.84" gradientTransform="matrix(-0.204475,-0.0002375,0.00035,-0.08505,432.8375,-56.19)" gradientUnits="userSpaceOnUse"><stop offset=".5" style="stop-color:#e0bb95;stop-opacity:1"/><stop offset=".703" style="stop-color:#deb892;stop-opacity:1"/><stop offset=".868" style="stop-color:#d6b088;stop-opacity:1"/><stop offset=".995" style="stop-color:#cca47a;stop-opacity:1"/></radialGradient></defs><g id="surface1"><path style="stroke:none;fill-rule:nonzero;fill:url(#radial0)" d="M 10.691406 15.207031 C 9.609375 15.199219 7.992188 15.15625 6.398438 15.007812 C 5.304688 14.902344 4.171875 14.738281 3.3125 14.253906 C 3.070312 14.113281 2.804688 14.082031 2.570312 14.050781 C 2.46875 14.039062 2.375 14.027344 2.296875 14.011719 C 1.683594 13.867188 1.257812 13.339844 1.257812 12.726562 L 1.246094 8.632812 C 1.246094 8.066406 1.648438 7.59375 2.207031 7.507812 C 2.21875 7.503906 2.226562 7.503906 2.238281 7.5 C 2.304688 7.476562 3.949219 6.941406 5.1875 5.976562 C 5.769531 5.519531 6.265625 4.820312 6.519531 4.101562 C 6.773438 3.382812 6.773438 2.601562 6.769531 1.976562 C 6.769531 1.570312 6.769531 1.066406 6.878906 0.992188 C 7.148438 0.816406 7.441406 0.726562 7.757812 0.726562 C 8.722656 0.726562 9.707031 1.609375 9.746094 2.503906 C 9.773438 3.128906 9.5625 3.863281 9.363281 4.574219 C 9.125 5.414062 8.917969 6.140625 9.105469 6.632812 C 9.132812 6.707031 9.203125 6.753906 9.28125 6.753906 C 9.28125 6.753906 10.191406 6.722656 10.191406 6.722656 L 10.199219 6.722656 C 11.21875 6.722656 12.050781 7.554688 12.050781 8.574219 L 12.058594 13.847656 C 12.058594 14.210938 11.917969 14.554688 11.660156 14.808594 C 11.402344 15.066406 11.0625 15.207031 10.699219 15.207031 Z M 10.691406 15.207031"/><path style="stroke:none;fill-rule:nonzero;fill:#ba8f63;fill-opacity:1" d="M 7.757812 0.914062 C 8.613281 0.914062 9.523438 1.722656 9.558594 2.511719 C 9.582031 3.105469 9.378906 3.824219 9.183594 4.519531 C 8.933594 5.394531 8.722656 6.148438 8.929688 6.699219 C 8.984375 6.84375 9.125 6.941406 9.28125 6.941406 L 9.296875 6.941406 L 10.195312 6.910156 L 10.203125 6.910156 C 11.117188 6.910156 11.863281 7.65625 11.867188 8.574219 L 11.871094 13.847656 C 11.871094 14.160156 11.75 14.457031 11.53125 14.675781 C 11.308594 14.898438 11.015625 15.019531 10.703125 15.019531 L 10.691406 15.019531 C 9.617188 15.011719 8.003906 14.96875 6.417969 14.820312 C 5.34375 14.71875 4.234375 14.558594 3.402344 14.089844 C 3.128906 13.933594 2.832031 13.898438 2.59375 13.867188 C 2.496094 13.855469 2.410156 13.84375 2.339844 13.828125 C 1.8125 13.703125 1.445312 13.25 1.445312 12.726562 L 1.433594 8.632812 C 1.433594 8.160156 1.769531 7.765625 2.238281 7.691406 C 2.257812 7.691406 2.277344 7.683594 2.292969 7.679688 C 2.363281 7.65625 4.035156 7.109375 5.300781 6.121094 C 5.910156 5.644531 6.429688 4.914062 6.695312 4.164062 C 6.960938 3.417969 6.957031 2.617188 6.957031 1.976562 C 6.957031 1.671875 6.957031 1.257812 7.007812 1.132812 C 7.238281 0.984375 7.488281 0.914062 7.757812 0.914062 M 7.757812 0.539062 C 7.425781 0.539062 7.089844 0.628906 6.777344 0.835938 C 6.371094 1.105469 6.808594 2.714844 6.34375 4.035156 C 6.0625 4.828125 5.53125 5.46875 5.070312 5.828125 C 3.84375 6.785156 2.179688 7.320312 2.179688 7.320312 C 1.535156 7.421875 1.058594 7.980469 1.058594 8.636719 L 1.070312 12.730469 C 1.074219 13.433594 1.566406 14.03125 2.253906 14.191406 C 2.53125 14.257812 2.910156 14.238281 3.21875 14.417969 C 4.046875 14.886719 5.109375 15.074219 6.382812 15.195312 C 7.957031 15.34375 9.558594 15.386719 10.6875 15.394531 L 10.703125 15.394531 C 11.554688 15.394531 12.25 14.703125 12.246094 13.847656 L 12.242188 8.574219 C 12.238281 7.445312 11.328125 6.535156 10.203125 6.535156 L 10.1875 6.535156 L 9.28125 6.566406 C 8.96875 5.738281 9.992188 3.871094 9.933594 2.496094 C 9.890625 1.519531 8.847656 0.539062 7.757812 0.539062 Z M 7.757812 0.539062"/><path style="stroke:none;fill-rule:nonzero;fill:#ba8f63;fill-opacity:1" d="M 8.265625 7.8125 C 8.5 8.4375 8.503906 9.414062 8.265625 10.015625 C 7.921875 10.886719 7.078125 11.644531 6.109375 11.78125 C 5.871094 11.8125 6.011719 12.03125 6.25 12 C 7.300781 11.855469 8.722656 11.425781 9.09375 10.484375 C 10.109375 7.890625 8.921875 6.53125 8.390625 6.9375 C 8.136719 7.132812 8.132812 7.457031 8.265625 7.8125 Z M 8.265625 7.8125"/><path style="stroke:none;fill-rule:nonzero;fill:url(#radial1)" d="M 10.785156 8.738281 C 9.738281 8.738281 8.484375 8.546875 8.429688 7.621094 C 8.414062 7.355469 8.496094 7.132812 8.675781 6.941406 C 9.148438 6.4375 10.3125 6.164062 11.953125 6.164062 C 12.546875 6.164062 12.980469 6.203125 12.984375 6.203125 L 13.015625 6.203125 C 13.03125 6.199219 13.046875 6.199219 13.066406 6.199219 C 13.597656 6.199219 14.039062 6.679688 14.078125 7.289062 C 14.113281 7.921875 13.699219 8.460938 13.148438 8.492188 L 13.136719 8.496094 L 13.121094 8.496094 C 13.109375 8.5 11.953125 8.738281 10.785156 8.738281 Z M 10.785156 8.738281"/><path style="stroke:none;fill-rule:nonzero;fill:#ba8f63;fill-opacity:1" d="M 11.953125 6.351562 C 12.539062 6.351562 12.964844 6.386719 12.96875 6.386719 L 12.996094 6.390625 L 13.023438 6.390625 C 13.039062 6.386719 13.050781 6.386719 13.066406 6.386719 C 13.496094 6.386719 13.859375 6.789062 13.890625 7.300781 C 13.921875 7.828125 13.582031 8.28125 13.136719 8.304688 L 13.082031 8.3125 C 13.070312 8.316406 11.929688 8.550781 10.785156 8.550781 C 10.121094 8.550781 9.59375 8.476562 9.21875 8.324219 C 8.703125 8.113281 8.628906 7.816406 8.617188 7.609375 C 8.605469 7.394531 8.667969 7.226562 8.8125 7.070312 C 9.242188 6.613281 10.390625 6.351562 11.953125 6.351562 M 11.953125 5.976562 C 10.527344 5.976562 8.160156 6.191406 8.242188 7.632812 C 8.304688 8.671875 9.558594 8.925781 10.785156 8.925781 C 11.984375 8.925781 13.160156 8.679688 13.160156 8.679688 C 13.8125 8.640625 14.308594 8.015625 14.265625 7.277344 C 14.222656 6.566406 13.691406 6.011719 13.066406 6.011719 C 13.046875 6.011719 13.023438 6.011719 13.003906 6.015625 C 13.003906 6.015625 12.566406 5.976562 11.953125 5.976562 Z M 11.953125 5.976562"/><path style="stroke:none;fill-rule:nonzero;fill:url(#radial2)" d="M 11.570312 11.117188 C 10.203125 11.117188 8.578125 10.890625 8.578125 9.796875 C 8.578125 8.703125 10.203125 8.476562 11.570312 8.476562 C 12.726562 8.476562 13.777344 8.644531 13.789062 8.644531 L 13.804688 8.648438 L 13.820312 8.648438 C 14.371094 8.648438 14.753906 9.230469 14.753906 9.753906 C 14.753906 10.304688 14.34375 10.945312 13.820312 10.945312 L 13.804688 10.945312 L 13.789062 10.949219 C 13.777344 10.949219 12.722656 11.117188 11.570312 11.117188 Z M 11.570312 11.117188"/><path style="stroke:none;fill-rule:nonzero;fill:#ba8f63;fill-opacity:1" d="M 11.570312 8.664062 C 12.707031 8.664062 13.75 8.832031 13.757812 8.832031 L 13.789062 8.835938 L 13.820312 8.835938 C 14.246094 8.835938 14.566406 9.324219 14.566406 9.753906 C 14.566406 10.207031 14.222656 10.757812 13.820312 10.757812 L 13.789062 10.757812 L 13.757812 10.765625 C 13.75 10.765625 12.707031 10.929688 11.570312 10.929688 C 10.714844 10.929688 10.035156 10.839844 9.550781 10.664062 C 8.847656 10.40625 8.765625 10.046875 8.765625 9.796875 C 8.765625 9.546875 8.847656 9.191406 9.550781 8.933594 C 10.035156 8.753906 10.714844 8.664062 11.570312 8.664062 M 11.570312 8.289062 C 10.078125 8.289062 8.390625 8.5625 8.390625 9.796875 C 8.390625 11.035156 10.078125 11.308594 11.570312 11.308594 C 12.753906 11.308594 13.820312 11.136719 13.820312 11.136719 C 14.464844 11.136719 14.941406 10.394531 14.941406 9.757812 C 14.941406 9.117188 14.464844 8.464844 13.820312 8.464844 C 13.820312 8.460938 12.753906 8.289062 11.570312 8.289062 Z M 11.570312 8.289062"/><path style="stroke:none;fill-rule:nonzero;fill:url(#radial3)" d="M 12.609375 15.273438 C 12.082031 15.273438 9.414062 15.234375 8.609375 14.421875 C 8.464844 14.28125 8.398438 14.128906 8.398438 13.957031 C 8.402344 13.300781 9.523438 12.925781 11.480469 12.925781 C 12.179688 12.925781 12.71875 12.976562 12.726562 12.976562 L 12.742188 12.976562 C 13.035156 12.976562 13.3125 13.097656 13.515625 13.3125 C 13.726562 13.53125 13.839844 13.820312 13.839844 14.128906 C 13.835938 14.757812 13.34375 15.269531 12.738281 15.269531 C 12.730469 15.273438 12.683594 15.273438 12.609375 15.273438 Z M 12.609375 15.273438"/><path style="stroke:none;fill-rule:nonzero;fill:#ba8f63;fill-opacity:1" d="M 11.484375 13.113281 C 12.167969 13.113281 12.703125 13.164062 12.707031 13.164062 L 12.738281 13.164062 C 12.980469 13.167969 13.207031 13.265625 13.378906 13.445312 C 13.554688 13.625 13.652344 13.871094 13.648438 14.128906 C 13.648438 14.65625 13.238281 15.085938 12.734375 15.085938 L 12.726562 15.085938 C 12.722656 15.085938 12.679688 15.085938 12.605469 15.085938 C 10.335938 15.085938 9.105469 14.660156 8.738281 14.292969 C 8.601562 14.152344 8.585938 14.035156 8.585938 13.960938 C 8.589844 13.4375 9.699219 13.113281 11.484375 13.113281 M 11.484375 12.738281 C 10.140625 12.738281 8.214844 12.917969 8.210938 13.957031 C 8.207031 15.390625 11.875 15.460938 12.609375 15.460938 C 12.6875 15.460938 12.734375 15.460938 12.734375 15.460938 L 12.738281 15.460938 C 13.449219 15.460938 14.023438 14.863281 14.027344 14.128906 C 14.027344 13.390625 13.453125 12.792969 12.742188 12.789062 C 12.742188 12.789062 12.195312 12.738281 11.484375 12.738281 Z M 11.484375 12.738281"/><path style="stroke:none;fill-rule:nonzero;fill:url(#radial4)" d="M 12.140625 13.289062 C 11.015625 13.289062 8.402344 13.164062 8.402344 11.980469 C 8.402344 10.988281 10.289062 10.839844 11.410156 10.839844 C 12.40625 10.839844 13.261719 10.953125 13.269531 10.953125 L 13.296875 10.953125 C 13.816406 10.953125 14.421875 11.210938 14.421875 11.9375 C 14.421875 12.625 13.886719 13.25 13.296875 13.25 L 13.28125 13.25 C 13.273438 13.25 12.792969 13.289062 12.140625 13.289062 Z M 12.140625 13.289062"/><path style="stroke:none;fill-rule:nonzero;fill:#ba8f63;fill-opacity:1" d="M 11.410156 10.65625 L 11.410156 11.03125 C 12.390625 11.03125 13.238281 11.140625 13.246094 11.140625 L 13.292969 11.140625 C 13.746094 11.140625 14.234375 11.351562 14.234375 11.9375 C 14.234375 12.515625 13.777344 13.0625 13.292969 13.0625 L 13.277344 13.0625 L 13.261719 13.066406 C 13.257812 13.066406 12.785156 13.105469 12.140625 13.105469 C 11.457031 13.105469 10.484375 13.058594 9.710938 12.855469 C 8.96875 12.65625 8.589844 12.363281 8.589844 11.984375 C 8.589844 11.867188 8.589844 11.515625 9.382812 11.265625 C 9.878906 11.109375 10.558594 11.03125 11.410156 11.03125 Z M 11.410156 10.65625 C 9.964844 10.65625 8.214844 10.882812 8.214844 11.984375 C 8.214844 13.277344 10.640625 13.480469 12.140625 13.480469 C 12.808594 13.480469 13.292969 13.4375 13.292969 13.4375 C 14 13.4375 14.609375 12.710938 14.609375 11.9375 C 14.609375 11.167969 14 10.765625 13.292969 10.765625 C 13.292969 10.765625 12.425781 10.65625 11.410156 10.65625 Z M 11.410156 10.65625"/><path style="stroke:none;fill-rule:nonzero;fill:#ba8f63;fill-opacity:1" d="M 3.472656 14.363281 L 2.875 12 L 2.625 14.125 Z M 3.472656 14.363281"/></g></svg>

<svg xmlns="http://www.w3.org/2000/svg" width="16pt" height="16pt" viewBox="0 0 16 16"><defs><radialGradient id="a" cx="51.77" cy="31.401" r="87.039" fx="51.77" fy="31.401" gradientTransform="matrix(-.00028 .125 -.09841 -.00021 9.575 -2.54)" gradientUnits="userSpaceOnUse"><stop offset=".6" style="stop-color:#e0bb95;stop-opacity:1"/><stop offset="1" style="stop-color:#cca47a;stop-opacity:1"/></radialGradient><radialGradient id="b" cx="1968" cy="-697.5" r="20.331" fx="1968" fy="-697.5" gradientTransform="matrix(-.17354 .00992 -.00468 -.08493 351.125 -71.43)" gradientUnits="userSpaceOnUse"><stop offset=".5" style="stop-color:#e0bb95;stop-opacity:1"/><stop offset=".995" style="stop-color:#cca47a;stop-opacity:1"/></radialGradient><radialGradient id="c" cx="2030.2" cy="-819.12" r="18.753" fx="2030.2" fy="-819.12" gradientTransform="matrix(-.21209 -.00024 .00036 -.08505 444.313 -59.424)" gradientUnits="userSpaceOnUse"><stop offset=".5" style="stop-color:#e0bb95;stop-opacity:1"/><stop offset=".703" style="stop-color:#deb892;stop-opacity:1"/><stop offset=".868" style="stop-color:#d6b088;stop-opacity:1"/><stop offset=".995" style="stop-color:#cca47a;stop-opacity:1"/></radialGradient><radialGradient id="d" cx="2072.2" cy="-723.45" r="20.446" fx="2072.2" fy="-723.45" gradientTransform="matrix(-.16336 -.00079 .00056 -.08505 351.587 -45.835)" gradientUnits="userSpaceOnUse"><stop offset=".5" style="stop-color:#e0bb95;stop-opacity:1"/><stop offset=".703" style="stop-color:#deb892;stop-opacity:1"/><stop offset=".868" style="stop-color:#d6b088;stop-opacity:1"/><stop offset=".995" style="stop-color:#cca47a;stop-opacity:1"/></radialGradient><radialGradient id="e" cx="2051.2" cy="-807.84" r="18.611" fx="2051.2" fy="-807.84" gradientTransform="matrix(-.20447 -.00024 .00035 -.08505 432.837 -56.19)" gradientUnits="userSpaceOnUse"><stop offset=".5" style="stop-color:#e0bb95;stop-opacity:1"/><stop offset=".703" style="stop-color:#deb892;stop-opacity:1"/><stop offset=".868" style="stop-color:#d6b088;stop-opacity:1"/><stop offset=".995" style="stop-color:#cca47a;stop-opacity:1"/></radialGradient></defs><path d="M10.691 15.207c-1.082-.008-2.699-.05-4.293-.2-1.093-.105-2.226-.269-3.085-.753-.243-.14-.508-.172-.743-.203a4 4 0 0 1-.273-.04 1.324 1.324 0 0 1-1.04-1.284l-.01-4.094c0-.567.401-1.04.96-1.125.012-.004.02-.004.031-.008.067-.023 1.711-.559 2.95-1.523A4.3 4.3 0 0 0 6.52 4.102c.253-.72.253-1.5.25-2.125 0-.407 0-.91.109-.985a1.6 1.6 0 0 1 .879-.265c.965 0 1.949.882 1.988 1.777.027.625-.184 1.36-.383 2.07-.238.84-.445 1.567-.258 2.059a.19.19 0 0 0 .176.12l.91-.03h.008c1.02 0 1.852.832 1.852 1.851l.008 5.274c0 .363-.141.707-.399.96a1.35 1.35 0 0 1-.96.399Zm0 0" style="stroke:none;fill-rule:nonzero;fill:url(#a)"/><path d="M7.758.914c.855 0 1.765.809 1.8 1.598.024.593-.18 1.312-.374 2.008-.25.875-.461 1.628-.254 2.18a.38.38 0 0 0 .351.241h.016l.898-.03h.008c.914 0 1.66.745 1.664 1.663l.004 5.274a1.167 1.167 0 0 1-1.168 1.172h-.012a52 52 0 0 1-4.273-.2c-1.074-.101-2.184-.261-3.016-.73-.273-.156-.57-.192-.808-.223a3 3 0 0 1-.254-.039 1.14 1.14 0 0 1-.895-1.101l-.011-4.094c0-.473.336-.867.804-.942.02 0 .04-.007.055-.011.07-.024 1.742-.57 3.008-1.559a4.47 4.47 0 0 0 1.394-1.957c.266-.746.262-1.547.262-2.187 0-.305 0-.72.05-.844.231-.149.481-.219.75-.219m0-.375c-.331 0-.667.09-.98.297-.406.27.032 1.879-.433 3.2A4.1 4.1 0 0 1 5.07 5.827C3.844 6.785 2.18 7.32 2.18 7.32a1.33 1.33 0 0 0-1.121 1.317l.011 4.093c.004.704.496 1.301 1.184 1.461.277.067.656.047.965.227.828.469 1.89.656 3.164.777 1.574.149 3.176.192 4.305.2h.015c.852 0 1.547-.692 1.543-1.547l-.004-5.274a2.04 2.04 0 0 0-2.039-2.039h-.015l-.907.031c-.312-.828.711-2.695.653-4.07C9.89 1.52 8.848.54 7.758.54m0 0" style="stroke:none;fill-rule:nonzero;fill:#ba8f63;fill-opacity:1"/><path d="M8.266 7.813c.234.625.238 1.601 0 2.203-.344.87-1.188 1.629-2.157 1.765-.238.031-.097.25.141.219 1.05-.145 2.473-.574 2.844-1.516 1.015-2.593-.172-3.953-.703-3.546-.254.195-.258.519-.125.875m0 0" style="stroke:none;fill-rule:nonzero;fill:#ba8f63;fill-opacity:1"/><path d="M10.785 8.738c-1.047 0-2.3-.191-2.355-1.117a.87.87 0 0 1 .246-.68c.472-.503 1.636-.777 3.277-.777.594 0 1.027.04 1.031.04h.032q.021-.006.05-.005c.532 0 .973.48 1.012 1.09.035.633-.379 1.172-.93 1.203l-.011.004h-.016c-.012.004-1.168.242-2.336.242m0 0" style="stroke:none;fill-rule:nonzero;fill:url(#b)"/><path d="M11.953 6.352c.586 0 1.012.035 1.016.035l.027.004h.027q.022-.005.043-.004c.43 0 .793.402.825.914.03.527-.309.98-.754 1.004l-.055.008c-.012.003-1.152.238-2.297.238-.664 0-1.191-.074-1.566-.227-.516-.21-.59-.508-.602-.715a.69.69 0 0 1 .195-.539c.43-.457 1.579-.718 3.141-.718m0-.375c-1.426 0-3.793.214-3.71 1.656.062 1.039 1.316 1.293 2.542 1.293 1.2 0 2.375-.246 2.375-.246.652-.04 1.149-.664 1.106-1.403-.043-.71-.575-1.265-1.2-1.265q-.032-.001-.062.004s-.438-.04-1.05-.04m0 0" style="stroke:none;fill-rule:nonzero;fill:#ba8f63;fill-opacity:1"/><path d="M11.57 11.117c-1.367 0-2.992-.226-2.992-1.32s1.625-1.32 2.992-1.32c1.157 0 2.207.168 2.22.168l.015.003h.015c.551 0 .934.582.934 1.106 0 .55-.41 1.191-.934 1.191h-.015l-.016.004c-.012 0-1.066.168-2.219.168m0 0" style="stroke:none;fill-rule:nonzero;fill:url(#c)"/><path d="M11.57 8.664c1.137 0 2.18.168 2.188.168l.031.004h.031c.426 0 .746.488.746.918 0 .453-.343 1.004-.746 1.004h-.03l-.032.008c-.008 0-1.051.164-2.188.164-.855 0-1.535-.09-2.02-.266-.702-.258-.784-.617-.784-.867s.082-.606.785-.863c.484-.18 1.164-.27 2.02-.27m0-.375c-1.493 0-3.18.274-3.18 1.508 0 1.238 1.687 1.512 3.18 1.512 1.183 0 2.25-.172 2.25-.172.644 0 1.12-.742 1.12-1.38 0-.64-.476-1.292-1.12-1.292 0-.004-1.067-.176-2.25-.176m0 0" style="stroke:none;fill-rule:nonzero;fill:#ba8f63;fill-opacity:1"/><path d="M12.61 15.273c-.528 0-3.196-.039-4-.851a.63.63 0 0 1-.212-.465c.004-.656 1.125-1.031 3.082-1.031.7 0 1.239.05 1.247.05h.015c.293 0 .57.122.774.336.21.22.324.508.324.817-.004.629-.496 1.14-1.102 1.14-.008.004-.054.004-.129.004m0 0" style="stroke:none;fill-rule:nonzero;fill:url(#d)"/><path d="M11.484 13.113c.684 0 1.22.051 1.223.051h.031a.9.9 0 0 1 .64.281c.177.18.274.426.27.684 0 .527-.41.957-.914.957h-.129c-2.27 0-3.5-.426-3.867-.793-.136-.14-.152-.258-.152-.332.004-.524 1.113-.848 2.898-.848m0-.375c-1.343 0-3.27.18-3.273 1.219-.004 1.434 3.664 1.504 4.398 1.504h.129c.711 0 1.285-.598 1.29-1.332 0-.738-.575-1.336-1.286-1.34 0 0-.547-.05-1.258-.05m0 0" style="stroke:none;fill-rule:nonzero;fill:#ba8f63;fill-opacity:1"/><path d="M12.14 13.29c-1.124 0-3.738-.126-3.738-1.31 0-.992 1.887-1.14 3.008-1.14.996 0 1.852.113 1.86.113h.027c.52 0 1.125.258 1.125.985 0 .687-.535 1.312-1.125 1.312h-.016c-.008 0-.488.04-1.14.04m0 0" style="stroke:none;fill-rule:nonzero;fill:url(#e)"/><path d="M11.41 10.656v.375c.98 0 1.828.11 1.836.11h.047c.453 0 .941.21.941.797 0 .578-.457 1.124-.941 1.124h-.016l-.015.004c-.004 0-.477.04-1.121.04-.684 0-1.657-.047-2.43-.25-.742-.2-1.121-.493-1.121-.872 0-.117 0-.468.793-.718.496-.157 1.176-.235 2.027-.235Zm0 0c-1.445 0-3.195.227-3.195 1.328 0 1.293 2.426 1.496 3.926 1.496.668 0 1.152-.043 1.152-.043.707 0 1.316-.726 1.316-1.5 0-.769-.609-1.171-1.316-1.171 0 0-.867-.11-1.883-.11M3.473 14.363 2.875 12l-.25 2.125Zm0 0" style="stroke:none;fill-rule:nonzero;fill:#ba8f63;fill-opacity:1"/></svg>
